!!!OTL: Die Reise nach Frankreich (157b), S. 344
!!!id: T0329
**kern
*clefG2
*k[f#]
*G:
{4g
=1
4g
4d
4g
=2
8g
8b
4b}
=3
{4g
=4
4f#
4g
4b
=5
4a}
4r
=6
{8a
8b
=7
4.cc
8b
8dd
8b
=8
4.dd
8cc}
=9
{4b
=10
4a
4dd
4cc
=11
4b}
4r
==
*-
!!!minrhy: 8
!!!meters: 3/4 ]  ZZ[4
!!!cut: Die Reise nach Frankreich (157b), S. 344
!!!reg: Luxemburg
!!!trd: Singendes Volk, Esch-Alzette 1937, posth.
!!!rhy1: X_  X_X_X_  XXX_
!!!rhy2: X_  X_X_X_  X_0_
!!!key: T0329  08  G 3/4 ]  ZZ[4
!!!mod: SECHSTONSKALA DUR ?]  AMBITUS[8
!!!kad: 3243
!!!akz: 11_-72_45_23_
!!!fot: 'a__b__c__d__
!!!for: 'a__aw_b__aw_
!!!fok: '-__/__/__^__
!! PHRAS[AUFTAKTIG]
!!!fkt: historische, Kriegs- und Soldatenlieder, Liebeslied
!!!bem: Blascheid, hhh Nikolaus Perl, 1903
!! THILL, Mathias:
!! PR[51] 2K[2] 2G[6] 3K[0] 3G[2] 4A[0] 4Ü[0] 5A[2] 6K[0] 6G[6]
!! 7K[0] 7G[0] 8A[0] MEHR[0] SI[18] ABS[49] SR[8] SP[10]
!! ST[11] 2k[2] 2g[16] 3k[2] 3g[2] 4d[4] 4ü[0] 5d[2] 6k[0] 6g[2]
!! 7k[0] 7g[0] 8d[0] mehr[0] si[31] dm[-13] sr[18] sp[12]
!! 1F[45] 2F[49] 3F[6] 4F[0] LF[0] 2P[0] 3P[0] 4P[0] TRI[0] DF[3] AB[53]
!! TF[0] U3K[0] U3[0] U4[0] U4Ü[0] U5[18] U6K[0] U6[10] U7K[0] U7[0]
!! N1[36] N2K[0] N2[8] N3K[0] N3[16] N4[4] N4Ü[0] N5[6] N6K[0] N6[2]
!!!n7k: 0] N7[0] O1[0] O2K[0] O2[0] O3K[0] O3[0] HÖ[0
